fs/toggle_multiple_20_regular.svg

<svg viewBox="0 0 20 20" fill="none" xmlns="http://www.w3.org/2000/svg" height="1em" width="1em">
  <path d="M8 5.5C8 6.32843 7.32843 7 6.5 7C5.67157 7 5 6.32843 5 5.5C5 4.67157 5.67157 4 6.5 4C7.32843 4 8 4.67157 8 5.5ZM3 5.5C3 7.433 4.567 9 6.5 9H13.5C15.433 9 17 7.433 17 5.5C17 3.567 15.433 2 13.5 2H6.5C4.567 2 3 3.567 3 5.5ZM6.5 3H13.5C14.8807 3 16 4.11929 16 5.5C16 6.88071 14.8807 8 13.5 8H6.5C5.11929 8 4 6.88071 4 5.5C4 4.11929 5.11929 3 6.5 3ZM13.5 16C14.3284 16 15 15.3284 15 14.5C15 13.6716 14.3284 13 13.5 13C12.6716 13 12 13.6716 12 14.5C12 15.3284 12.6716 16 13.5 16ZM3 14.5C3 16.433 4.567 18 6.5 18H13.5C15.433 18 17 16.433 17 14.5C17 12.567 15.433 11 13.5 11H6.5C4.567 11 3 12.567 3 14.5ZM6.5 12H13.5C14.8807 12 16 13.1193 16 14.5C16 15.8807 14.8807 17 13.5 17H6.5C5.11929 17 4 15.8807 4 14.5C4 13.1193 5.11929 12 6.5 12Z" fill="#212121"/>
</svg>

<svg viewBox="0 0 20 20" fill="none" xmlns="http://www.w3.org/2000/svg" height="1em" width="1em">
  <path d="M8 5.5a1.5 1.5 0 1 1-3 0 1.5 1.5 0 0 1 3 0Zm-5 0A3.5 3.5 0 0 0 6.5 9h7a3.5 3.5 0 1 0 0-7h-7A3.5 3.5 0 0 0 3 5.5ZM6.5 3h7a2.5 2.5 0 0 1 0 5h-7a2.5 2.5 0 0 1 0-5Zm7 13a1.5 1.5 0 1 0 0-3 1.5 1.5 0 0 0 0 3ZM3 14.5A3.5 3.5 0 0 0 6.5 18h7a3.5 3.5 0 1 0 0-7h-7A3.5 3.5 0 0 0 3 14.5ZM6.5 12h7a2.5 2.5 0 0 1 0 5h-7a2.5 2.5 0 0 1 0-5Z" fill="#212121"/>
</svg>
